svgs/sharp-light/square-kanban.svg

<svg xmlns="http://www.w3.org/2000/svg" viewBox="0 0 448 512"><!--! Font Awesome Pro 6.6.0 by @fontawesome - https://fontawesome.com License - https://fontawesome.com/license (Commercial License) Copyright 2024 Fonticons, Inc. --><path d="M32 448L32 64l384 0 0 384L32 448zM0 480l32 0 384 0 32 0 0-32 0-384 0-32-32 0L32 32 0 32 0 64 0 448l0 32zM144 288l0-160-32 0 0 160 32 0zm160 64l32 0 0-224-32 0 0 224zm-64-96l0-128-32 0 0 128 32 0z"/></svg>

<svg xmlns="http://www.w3.org/2000/svg" viewBox="0 0 448 512"><!--! Font Awesome Pro 6.4.0 by @fontawesome - https://fontawesome.com License - https://fontawesome.com/license (Commercial License) Copyright 2023 Fonticons, Inc. --><path d="M32 448V64H416V448H32zM0 480H32 416h32V448 64 32H416 32 0V64 448v32zM144 288V128H112V288h32zm160 64h32V128H304V352zm-64-96V128H208V256h32z"/></svg>
